packages/core/src/svgs/spe.svg

<svg width="24" height="24" viewBox="0 0 24 24" fill="none" xmlns="http://www.w3.org/2000/svg">
<g clip-path="url(#clip0_31_19062)">
<path d="M0 0H24V24H0V0Z" fill="#F0F3FA"/>
<path d="M5.57164 9.7285H5.14307V8.14279L6.69021 7.23422L6.91307 7.6885L5.57164 8.59707V9.73279V9.7285ZM5.58449 14.2714H5.14307V16.0842L6.69021 16.9928L6.85735 16.3071L5.58449 15.6299V14.2714ZM18.4159 9.7285H18.8574V8.14279L17.3102 7.46136L17.0874 7.91564L18.4159 8.59707V9.73279V9.7285ZM18.4288 14.2714H18.8574V15.8571L17.3102 16.7656L17.1431 16.0799L18.4288 15.4028V14.2714ZM11.7774 4.96707L10.6716 5.42136L10.4531 4.96707L11.7816 4.28564L13.1102 4.96707L12.8831 5.42136L11.7774 4.96707ZM11.7774 19.0328L10.6716 18.5785L10.4531 19.0328L11.7816 19.7142L13.1102 19.0328L12.8831 18.5785L11.7774 19.0328Z" fill="#F0D43A"/>
<path d="M6.85714 9.27862V15.0858L11.7771 17.8929L17.1429 14.8586V9.27862L11.7943 6.23148L6.85714 9.27434V9.27862ZM11.7771 5.19434L6 8.59719V15.6301L11.7771 18.8058L18 15.4029V8.59719L11.7771 5.19434Z" fill="url(#paint0_linear_31_19062)"/>
<path d="M16.7142 9.27845L11.7771 6.55273L7.28564 9.27845V14.9484L11.7771 17.447L16.7142 15.1713V9.27845Z" fill="url(#paint1_linear_31_19062)"/>
<path d="M11.7727 4.74023L18.4284 8.48166V15.5231L11.777 19.2602L5.57129 15.7459V8.48595L11.7727 4.74023ZM11.7813 5.25881L5.99986 8.74309V15.4802L11.777 18.7459L17.9999 15.2574V8.74309L11.7856 5.25881H11.7813Z" fill="url(#paint2_linear_31_19062)"/>
<path d="M11.7726 6.10303L17.1426 9.16303V15.1759L11.7769 17.8973L6.85693 15.1759V9.1716L11.7726 6.10731V6.10303ZM11.7812 6.62588L7.28551 9.42017V14.9487L11.7769 17.3787L16.7141 14.803V9.42874L11.7812 6.62588Z" fill="url(#paint3_linear_31_19062)"/>
<path d="M12.4288 11.9998C12.4288 12.3769 12.1416 12.6812 11.7859 12.6812C11.4302 12.6812 11.1431 12.3769 11.1431 11.9998C11.1431 11.6226 11.4302 11.3184 11.7859 11.3184C12.1416 11.3184 12.4288 11.6226 12.4288 11.9998Z" fill="#F9DA2B"/>
<path fill-rule="evenodd" clip-rule="evenodd" d="M13.5512 13.0155C13.5084 13.3841 13.4441 13.7312 13.3627 14.0527H13.367C13.2641 14.8027 12.7155 16.0841 11.8027 16.0841C11.2241 16.0841 10.7055 15.4584 10.3755 14.4898C9.38125 14.687 8.5841 14.5498 8.29267 14.0398C8.19839 13.877 8.1641 13.6798 8.18553 13.4655L8.63553 13.4955C8.61839 13.6412 8.6441 13.7441 8.68267 13.817C8.7341 13.9027 8.84125 13.997 9.04696 14.057C9.26125 14.1212 9.54839 14.1427 9.91267 14.1041L10.247 14.0527C10.1612 13.7312 10.1012 13.3841 10.0584 13.0155C9.2441 12.4112 7.64553 11.0955 8.29267 9.95981C8.5841 9.44981 9.38125 9.31267 10.3755 9.50981C10.7055 8.54124 11.2241 7.91553 11.8027 7.91553C11.9955 7.91553 12.1798 7.9841 12.3512 8.10838L12.1027 8.48553C11.987 8.39981 11.8884 8.36981 11.8027 8.36981C11.7041 8.36981 11.5712 8.41267 11.417 8.56696C11.1638 8.82382 10.9745 9.13648 10.8641 9.47981L10.8212 9.61267C11.1341 9.69838 11.4641 9.82267 11.807 9.96838C12.7327 9.56124 14.6612 8.81981 15.3127 9.95981C15.6041 10.4655 15.3255 11.2284 14.657 11.9998C15.3255 12.7712 15.6041 13.5341 15.3127 14.0398C15.2184 14.2112 15.0684 14.3355 14.8755 14.4255L14.6741 14.0184C14.807 13.9584 14.8841 13.8898 14.9227 13.817C14.9741 13.727 14.9998 13.5898 14.9527 13.3755C14.8715 13.0944 14.7377 12.8311 14.5584 12.5998C14.4941 12.5141 14.4255 12.4198 14.3441 12.3298C14.1127 12.5655 13.847 12.7927 13.5512 13.0155ZM13.0455 13.3627C13.0112 13.5684 12.9684 13.7655 12.9212 13.9498C12.737 13.9027 12.5484 13.8384 12.3555 13.7655C12.5913 13.6413 12.8215 13.5069 13.0455 13.3627ZM14.0398 11.9998C13.907 12.1327 13.757 12.2698 13.5984 12.4027C13.61 12.1342 13.61 11.8654 13.5984 11.597C13.757 11.7298 13.907 11.867 14.0398 11.9998ZM14.3484 11.6698C14.4255 11.5798 14.4941 11.4898 14.5584 11.3998C14.7727 11.1041 14.9012 10.8427 14.9527 10.6241C14.9998 10.4098 14.9741 10.2727 14.9227 10.1827C14.8712 10.097 14.7684 10.0027 14.5584 9.94267C14.2769 9.87207 13.9845 9.85607 13.697 9.89553C13.5849 9.90827 13.4734 9.92542 13.3627 9.94696C13.4441 10.2684 13.5084 10.6155 13.5512 10.9841C13.847 11.207 14.1127 11.4341 14.3484 11.6698ZM12.9212 10.0498C12.737 10.097 12.5484 10.1612 12.3555 10.2341C12.5913 10.3582 12.8215 10.4926 13.0455 10.637C13.0112 10.4312 12.9684 10.2341 12.9212 10.0498ZM11.807 10.4655C12.2676 10.683 12.7079 10.9412 13.1227 11.237C13.1675 11.746 13.1675 12.2579 13.1227 12.767C12.7063 13.0614 12.2646 13.3181 11.8027 13.5341C11.342 13.3166 10.9017 13.0585 10.487 12.7627C10.4422 12.2537 10.4422 11.7417 10.487 11.2327C10.9019 10.9385 11.3423 10.6818 11.8027 10.4655H11.807ZM11.2498 10.2341C11.0612 10.1612 10.8684 10.097 10.6841 10.0498C10.6412 10.2341 10.5984 10.4312 10.5598 10.637C10.7853 10.4927 11.0169 10.3582 11.2541 10.2341H11.2498ZM10.0584 10.9841C10.1012 10.6155 10.1655 10.2684 10.247 9.94696C10.1363 9.92539 10.0247 9.90824 9.91267 9.89553C9.62403 9.85411 9.33011 9.86866 9.04696 9.93839C8.84125 10.0027 8.7341 10.097 8.68267 10.1827C8.63553 10.2727 8.60553 10.4098 8.65696 10.6241C8.70839 10.8384 8.83696 11.1041 9.05125 11.3998C9.11553 11.4855 9.17982 11.5798 9.26125 11.6698C9.49696 11.4341 9.76267 11.207 10.0584 10.9841ZM9.56982 11.9998C9.70267 12.1327 9.85267 12.2698 10.0112 12.4027C9.99969 12.1342 9.99969 11.8654 10.0112 11.597C9.85267 11.7298 9.70267 11.867 9.56982 11.9998ZM10.6841 13.9498C10.6412 13.7655 10.5984 13.5684 10.5598 13.3627C10.7853 13.507 11.0169 13.6414 11.2541 13.7655C11.0612 13.8384 10.8684 13.9027 10.6841 13.9498ZM10.817 14.387C10.8598 14.4984 10.8984 14.6012 10.9455 14.7041C11.0912 15.0384 11.2541 15.2827 11.417 15.4327C11.5712 15.587 11.7041 15.6298 11.8027 15.6298C11.9055 15.6298 12.0384 15.587 12.197 15.4327C12.3555 15.2827 12.5184 15.0384 12.6684 14.7041C12.7112 14.6055 12.7541 14.4984 12.7927 14.387C12.4755 14.3012 12.1412 14.177 11.807 14.0312C11.4641 14.177 11.1341 14.297 10.8212 14.387H10.817Z" fill="url(#paint4_linear_31_19062)"/>
<path d="M12.8573 9.27869C13.094 9.27869 13.2859 9.0753 13.2859 8.8244C13.2859 8.57351 13.094 8.37012 12.8573 8.37012C12.6206 8.37012 12.4287 8.57351 12.4287 8.8244C12.4287 9.0753 12.6206 9.27869 12.8573 9.27869Z" fill="#FAD024"/>
<path d="M8.57164 13.3627C8.80833 13.3627 9.00021 13.1593 9.00021 12.9084C9.00021 12.6575 8.80833 12.4541 8.57164 12.4541C8.33494 12.4541 8.14307 12.6575 8.14307 12.9084C8.14307 13.1593 8.33494 13.3627 8.57164 13.3627Z" fill="#FAD024"/>
<path d="M14.1429 14.7216C14.3796 14.7216 14.5715 14.5182 14.5715 14.2673C14.5715 14.0164 14.3796 13.813 14.1429 13.813C13.9062 13.813 13.7144 14.0164 13.7144 14.2673C13.7144 14.5182 13.9062 14.7216 14.1429 14.7216Z" fill="#FAD024"/>
</g>
<defs>
<linearGradient id="paint0_linear_31_19062" x1="12" y1="5.19434" x2="12" y2="18.8058" gradientUnits="userSpaceOnUse">
<stop stop-color="#E3B033"/>
<stop offset="1" stop-color="#FBDC39"/>
</linearGradient>
<linearGradient id="paint1_linear_31_19062" x1="14.4685" y1="7.91559" x2="9.44993" y2="16.4913" gradientUnits="userSpaceOnUse">
<stop stop-color="#B11723"/>
<stop offset="1" stop-color="#570203"/>
</linearGradient>
<linearGradient id="paint2_linear_31_19062" x1="14.2156" y1="6.12881" x2="11.9184" y2="19.2474" gradientUnits="userSpaceOnUse">
<stop stop-color="#FBF3A0"/>
<stop offset="0.23" stop-color="#F1CC3C"/>
<stop offset="0.47" stop-color="#FBEF8B"/>
<stop offset="0.63" stop-color="#EA9E28"/>
<stop offset="0.8" stop-color="#FADA39"/>
<stop offset="1" stop-color="#FCD83B"/>
</linearGradient>
<linearGradient id="paint3_linear_31_19062" x1="11.9998" y1="6.36446" x2="11.9998" y2="17.6402" gradientUnits="userSpaceOnUse">
<stop stop-color="#E9A223"/>
<stop offset="0.59" stop-color="#EC801A"/>
<stop offset="1" stop-color="#EDB325"/>
</linearGradient>
<linearGradient id="paint4_linear_31_19062" x1="11.7855" y1="7.91553" x2="11.7855" y2="16.0841" gradientUnits="userSpaceOnUse">
<stop stop-color="#DF9327"/>
<stop offset="0.29" stop-color="#FBE84A"/>
<stop offset="0.63" stop-color="#EEAE20"/>
<stop offset="1" stop-color="#DF9427"/>
</linearGradient>
<clipPath id="clip0_31_19062">
<rect width="24" height="24" fill="white"/>
</clipPath>
</defs>
</svg>

<svg xmlns="http://www.w3.org/2000/svg" width="24" height="24" fill="none" viewBox="0 0 24 24"><g clip-path="url(#a)"><path fill="#F0F3FA" d="M0 0h24v24H0z"/><path fill="#F0D43A" d="M5.572 9.729h-.429V8.143l1.547-.909.223.455-1.341.908v1.136zm.012 4.542h-.44v1.813l1.546.909.167-.686-1.273-.677zM18.416 9.73h.441V8.143L17.31 7.46l-.223.455 1.329.681v1.136zm.013 4.542h.428v1.586l-1.547.909-.167-.686 1.286-.677zm-6.652-9.304-1.105.454-.219-.454 1.329-.681 1.328.681-.227.454zm0 14.066-1.105-.455-.219.455 1.329.681 1.328-.681-.227-.455z"/><path fill="url(#b)" d="M6.857 9.279v5.807l4.92 2.807 5.366-3.034v-5.58L11.794 6.23 6.857 9.274zm4.92-4.085L6 8.597v7.033l5.777 3.176L18 15.403V8.597z"/><path fill="url(#c)" d="m16.714 9.278-4.937-2.725-4.491 2.725v5.67l4.491 2.499 4.937-2.276z"/><path fill="url(#d)" d="m11.773 4.74 6.655 3.742v7.041l-6.651 3.737-6.206-3.514v-7.26zm.008.519L6 8.743v6.737l5.777 3.266L18 15.257V8.743L11.786 5.26z"/><path fill="url(#e)" d="m11.773 6.103 5.37 3.06v6.013l-5.366 2.721-4.92-2.721V9.172l4.916-3.065zm.008.523L7.286 9.42v5.529l4.49 2.43 4.938-2.576V9.429z"/><path fill="#F9DA2B" d="M12.429 12c0 .377-.287.681-.643.681s-.643-.304-.643-.681.287-.682.643-.682.643.305.643.682"/><path fill="url(#f)" fill-rule="evenodd" d="M13.551 13.016a8 8 0 0 1-.188 1.037h.004c-.103.75-.652 2.031-1.564 2.031-.579 0-1.098-.626-1.428-1.594-.994.197-1.79.06-2.082-.45a.95.95 0 0 1-.107-.574l.45.03a.54.54 0 0 0 .047.321c.051.086.158.18.364.24.214.064.501.086.866.047l.334-.051a7 7 0 0 1-.189-1.038c-.814-.604-2.412-1.92-1.765-3.055.291-.51 1.088-.647 2.083-.45.33-.969.848-1.594 1.427-1.594.192 0 .377.068.548.192l-.248.378a.5.5 0 0 0-.3-.116c-.099 0-.232.043-.386.197-.253.257-.442.57-.553.913l-.043.133c.313.085.643.21.986.355.926-.407 2.854-1.148 3.506-.008.291.505.012 1.268-.656 2.04.668.771.947 1.534.656 2.04a.92.92 0 0 1-.437.386l-.202-.408c.133-.06.21-.128.249-.201.051-.09.077-.227.03-.441a2.3 2.3 0 0 0-.395-.776c-.064-.086-.133-.18-.214-.27a7 7 0 0 1-.793.685m-.505.347a7 7 0 0 1-.125.587 5 5 0 0 1-.566-.184q.354-.188.69-.403M14.04 12c-.133.133-.283.27-.442.403a9 9 0 0 0 0-.806c.159.133.309.27.442.403m.308-.33q.115-.135.21-.27c.215-.296.343-.557.395-.776.047-.214.021-.351-.03-.441-.052-.086-.155-.18-.365-.24a2.3 2.3 0 0 0-.861-.047q-.169.019-.334.051.122.483.188 1.037.444.333.797.686m-1.427-1.62a5 5 0 0 0-.566.184q.354.187.69.403a7 7 0 0 0-.124-.587m-1.114.415q.691.327 1.316.772.068.764 0 1.53a8.6 8.6 0 0 1-1.32.767 8.6 8.6 0 0 1-1.316-.771 8.7 8.7 0 0 1 0-1.53q.623-.443 1.316-.768zm-.557-.23a5 5 0 0 0-.566-.185 14 14 0 0 0-.124.587q.338-.216.694-.403zm-1.192.75q.065-.556.189-1.038a4 4 0 0 0-.334-.051 2.3 2.3 0 0 0-.866.042c-.206.065-.313.159-.364.245-.047.09-.077.227-.026.441s.18.48.394.776c.065.085.129.18.21.27a7.6 7.6 0 0 1 .797-.686M9.57 12c.133.133.283.27.441.403a9 9 0 0 1 0-.806c-.158.133-.308.27-.441.403m1.114 1.95a14 14 0 0 1-.124-.587q.338.216.694.402a6 6 0 0 1-.57.185m.133.437c.043.111.081.214.128.317.146.334.31.579.472.729.154.154.287.197.386.197.102 0 .235-.043.394-.197.159-.15.321-.395.471-.729q.066-.15.125-.317a7 7 0 0 1-.986-.356 9 9 0 0 1-.986.356z" clip-rule="evenodd"/><path fill="#FAD024" d="M12.857 9.279c.237 0 .429-.204.429-.455 0-.25-.192-.454-.429-.454-.236 0-.428.204-.428.454 0 .251.192.455.428.455M8.572 13.363c.236 0 .428-.204.428-.455 0-.25-.192-.454-.428-.454-.237 0-.429.204-.429.454 0 .251.192.455.429.455M14.143 14.722c.237 0 .428-.204.428-.455 0-.25-.191-.454-.428-.454s-.429.203-.429.454.192.455.429.455"/></g><defs><linearGradient id="b" x1="12" x2="12" y1="5.194" y2="18.806" gradientUnits="userSpaceOnUse"><stop stop-color="#E3B033"/><stop offset="1" stop-color="#FBDC39"/></linearGradient><linearGradient id="c" x1="14.469" x2="9.45" y1="7.916" y2="16.491" gradientUnits="userSpaceOnUse"><stop stop-color="#B11723"/><stop offset="1" stop-color="#570203"/></linearGradient><linearGradient id="d" x1="14.216" x2="11.918" y1="6.129" y2="19.247" gradientUnits="userSpaceOnUse"><stop stop-color="#FBF3A0"/><stop offset=".23" stop-color="#F1CC3C"/><stop offset=".47" stop-color="#FBEF8B"/><stop offset=".63" stop-color="#EA9E28"/><stop offset=".8" stop-color="#FADA39"/><stop offset="1" stop-color="#FCD83B"/></linearGradient><linearGradient id="e" x1="12" x2="12" y1="6.364" y2="17.64" gradientUnits="userSpaceOnUse"><stop stop-color="#E9A223"/><stop offset=".59" stop-color="#EC801A"/><stop offset="1" stop-color="#EDB325"/></linearGradient><linearGradient id="f" x1="11.786" x2="11.786" y1="7.916" y2="16.084" gradientUnits="userSpaceOnUse"><stop stop-color="#DF9327"/><stop offset=".29" stop-color="#FBE84A"/><stop offset=".63" stop-color="#EEAE20"/><stop offset="1" stop-color="#DF9427"/></linearGradient><clipPath id="a"><path fill="#fff" d="M0 0h24v24H0z"/></clipPath></defs></svg>
